images/header/search-input.svg

<svg width="359" height="41" viewBox="0 0 359 41" fill="none" xmlns="http://www.w3.org/2000/svg">
<path d="M359 0.388916H361V-1.61108H359V0.388916ZM359 40.3889V42.3889H361V40.3889H359ZM20 2.38892H359V-1.61108H20V2.38892ZM357 0.388916V40.3889H361V0.388916H357ZM359 38.3889H20V42.3889H359V38.3889ZM20 38.3889C10.0589 38.3889 2 30.33 2 20.3889H-2C-2 32.5392 7.84974 42.3889 20 42.3889V38.3889ZM20 -1.61108C7.84974 -1.61108 -2 8.23865 -2 20.3889H2C2 10.4478 10.0589 2.38892 20 2.38892V-1.61108Z" fill="black"/>
</svg>

<svg width="359" height="41" fill="none" xmlns="http://www.w3.org/2000/svg"><path d="M359 .39h2v-2h-2v2Zm0 40v2h2v-2h-2Zm-339-38h339v-4H20v4Zm337-2v40h4v-40h-4Zm2 38H20v4h339v-4Zm-339 0a18 18 0 0 1-18-18h-4a22 22 0 0 0 22 22v-4Zm0-40a22 22 0 0 0-22 22h4a18 18 0 0 1 18-18v-4Z" fill="#000"/></svg>
